Origami/32x32/apps/wesnoth.svg

<svg width="32" height="32" version="1" xmlns="http://www.w3.org/2000/svg">
 <g transform="matrix(.072611 0 0 .073729 3.1972 3)" style="fill:#4f4f4f">
  <path d="m324.48 51.943-146.49-51.658c-1.076-0.38-2.25-0.38-3.326 0l-146.49 51.658c-1.999 0.705-3.337 2.595-3.337 4.715 0 52.278 13.834 112.71 37.956 165.8 19.566 43.069 54.751 100.52 111.25 129.62 0.719 0.37 1.504 0.555 2.29 0.555s1.571-0.185 2.29-0.555c56.496-29.106 91.68-86.556 111.25-129.62 24.121-53.094 37.955-113.53 37.955-165.8 0-2.12-1.338-4.01-3.337-4.715z" style="fill:#4f4f4f"/>
 </g>
 <g transform="matrix(.039606 0 0 .0397 9.0166 10)" opacity=".2">
  <path d="m324.48 51.943-146.49-51.658c-1.076-0.38-2.25-0.38-3.326 0l-146.49 51.658c-1.999 0.705-3.337 2.595-3.337 4.715 0 52.278 13.834 112.71 37.956 165.8 19.566 43.069 54.751 100.52 111.25 129.62 0.719 0.37 1.504 0.555 2.29 0.555s1.571-0.185 2.29-0.555c56.496-29.106 91.68-86.556 111.25-129.62 24.121-53.094 37.955-113.53 37.955-165.8 0-2.12-1.338-4.01-3.337-4.715z"/>
 </g>
 <g transform="matrix(.039606 0 0 .0397 9.0166 9)" style="fill:#ffb706">
  <path d="m324.48 51.943-146.49-51.658c-1.076-0.38-2.25-0.38-3.326 0l-146.49 51.658c-1.999 0.705-3.337 2.595-3.337 4.715 0 52.278 13.834 112.71 37.956 165.8 19.566 43.069 54.751 100.52 111.25 129.62 0.719 0.37 1.504 0.555 2.29 0.555s1.571-0.185 2.29-0.555c56.496-29.106 91.68-86.556 111.25-129.62 24.121-53.094 37.955-113.53 37.955-165.8 0-2.12-1.338-4.01-3.337-4.715z" style="fill:#ffb706"/>
 </g>
 <path d="m15.879044 3.021426-10.636986 3.8085483c-0.1449998 0.051999-0.2419997 0.1912974-0.2419997 0.3475953 0 0.297596 0.0174 0.6040918 0.0293 0.9081877 0.0311-0.1141985 0.0991-0.2150971 0.2128997-0.2557966l10.636986-3.8085483c0.078-0.028 0.164-0.028 0.242 0l10.636986 3.8085483c0.114 0.040699 0.182 0.1415981 0.213 0.2557966 0.012-0.3040959 0.029-0.6105917 0.029-0.9081877 0-0.1562979-0.097-0.295596-0.242-0.3475953l-10.636986-3.8085483c-0.078-0.028-0.164-0.028-0.242 0z" style="fill:#ffffff;opacity:.1"/>
 <g transform="matrix(.072611 0 0 .073729 3.1972 5.0002)" opacity=".2">
  <path d="m25.232 41.855c-0.11807 0.4269-0.40348 0.78706-0.40348 1.2451 0 52.278 13.832 112.71 37.954 165.8 19.566 43.069 54.756 100.51 111.25 129.62 0.719 0.37 1.5004 0.55631 2.2864 0.55631s1.5674-0.18631 2.2864-0.55631c56.496-29.106 91.686-86.55 111.25-129.62 24.121-53.094 37.954-113.53 37.954-165.8 0-0.458-0.28541-0.81816-0.40348-1.2451-1.9514 49.319-15.291 104.49-37.55 153.49-19.567 43.069-54.757 100.51-111.25 129.62-0.719 0.37-1.5004 0.55631-2.2864 0.55631s-1.5674-0.18631-2.2864-0.55631c-56.49-29.11-91.681-86.55-111.25-129.62-22.257-48.99-35.596-104.17-37.548-153.48z"/>
 </g>
 <path d="m10.412846 10.410258 2.297622-1.3265335 10.612264 18.38098 0.509355 3.535295-2.806977-2.208762z" style="opacity:.2"/>
 <path d="m10.412846 9.4102575 2.297622-1.326533 10.612264 18.38098 0.509355 3.535295-2.806977-2.208762z" style="fill:#ffffff"/>
 <path d="m8.7475797 3.0051654c-0.083017 0.010401-0.1650068 0.038314-0.2422481 0.082908l-1.1827389 0.681403c-0.3089634 0.1783801-0.4141502 0.570642-0.2357706 0.8796054l2.000163 3.4627175-1.7410746 1.0052632c-0.3089634 0.1783802-0.4141502 0.570642-0.23577 0.8796055l0.6826976 1.182739c0.1783802 0.308963 0.570642 0.414151 0.8796055 0.235771l5.7776734-3.3357647c0.308963-0.1783801 0.41415-0.570642 0.235771-0.8796054l-0.682699-1.1827389c-0.17838-0.3089634-0.570642-0.4141507-0.879605-0.2357705l-1.739779 1.0039678-1.998868-3.4627175c-0.1337848-0.2317226-0.3883067-0.348588-0.6373573-0.3173834z" style="opacity:.2"/>
 <path d="m8.7475797 2.0049715c-0.083017 0.010401-0.1650068 0.038314-0.2422481 0.082908l-1.1827389 0.681403c-0.3089634 0.1783801-0.4141502 0.570642-0.2357706 0.8796054l2.000163 3.4627175-1.7410746 1.0052632c-0.3089634 0.1783802-0.4141502 0.570642-0.23577 0.8796055l0.6826976 1.1827389c0.1783802 0.308963 0.570642 0.414151 0.8796055 0.235771l5.7776734-3.3357646c0.308963-0.1783801 0.41415-0.570642 0.235771-0.8796054l-0.682699-1.1827389c-0.17838-0.3089634-0.570642-0.4141507-0.879605-0.2357705l-1.739779 1.0039678-1.998868-3.4627175c-0.1337848-0.2317226-0.3883067-0.348588-0.6373573-0.3173834z" style="fill:#3f3f3f"/>
 <path d="M 21.619241,10.410258 19.321619,9.0837245 8.7093551,27.464705 8.1999996,31 11.006977,28.791238 Z" style="opacity:.2"/>
 <path d="m21.619241 9.4102575-2.297622-1.326533-10.612264 18.38098-0.5093555 3.535295 2.8069774-2.208762z" style="fill:#ffffff"/>
 <path d="m23.284507 3.0051654c0.08302 0.010401 0.165007 0.038314 0.242248 0.082908l1.182739 0.6814027c0.308964 0.1783801 0.414151 0.570642 0.235771 0.8796054l-2.000163 3.4627175 1.741075 1.0052632c0.308963 0.1783802 0.41415 0.570642 0.23577 0.8796055l-0.682698 1.1827393c-0.17838 0.308963-0.570642 0.414151-0.879606 0.235771l-5.777673-3.3357647c-0.308963-0.1783801-0.41415-0.570642-0.235771-0.8796054l0.682699-1.1827389c0.17838-0.3089634 0.570642-0.4141507 0.879605-0.2357705l1.739779 1.0039678 1.998868-3.4627175c0.133785-0.2317226 0.388307-0.348588 0.637357-0.3173834z" style="opacity:.2"/>
 <path d="m23.284507 2.0049715c0.08302 0.010401 0.165007 0.038314 0.242248 0.082908l1.182739 0.6814027c0.308964 0.1783801 0.414151 0.570642 0.235771 0.8796054l-2.000163 3.4627175 1.741075 1.0052632c0.308963 0.1783802 0.41415 0.570642 0.23577 0.8796055l-0.682698 1.1827392c-0.17838 0.308963-0.570642 0.414151-0.879606 0.235771l-5.777673-3.3357646c-0.308963-0.1783801-0.41415-0.570642-0.235771-0.8796054l0.682699-1.1827389c0.17838-0.3089634 0.570642-0.4141507 0.879605-0.2357705l1.739779 1.0039678 1.998868-3.4627175c0.133785-0.2317226 0.388307-0.348588 0.637357-0.3173834z" style="fill:#3f3f3f"/>
</svg>

<svg xmlns="http://www.w3.org/2000/svg" width="32" height="32" version="1">
 <g style="fill:#4f4f4f" transform="matrix(.072611 0 0 .073729 3.1972 3)">
  <path style="fill:#4f4f4f" d="m324.48 51.943-146.49-51.658c-1.076-0.38-2.25-0.38-3.326 0l-146.49 51.658c-1.999 0.705-3.337 2.595-3.337 4.715 0 52.278 13.834 112.71 37.956 165.8 19.566 43.069 54.751 100.52 111.25 129.62 0.719 0.37 1.504 0.555 2.29 0.555s1.571-0.185 2.29-0.555c56.496-29.106 91.68-86.556 111.25-129.62 24.121-53.094 37.955-113.53 37.955-165.8 0-2.12-1.338-4.01-3.337-4.715z"/>
 </g>
 <g opacity=".2" transform="matrix(.039606 0 0 .0397 9.0166 10)">
  <path d="m324.48 51.943-146.49-51.658c-1.076-0.38-2.25-0.38-3.326 0l-146.49 51.658c-1.999 0.705-3.337 2.595-3.337 4.715 0 52.278 13.834 112.71 37.956 165.8 19.566 43.069 54.751 100.52 111.25 129.62 0.719 0.37 1.504 0.555 2.29 0.555s1.571-0.185 2.29-0.555c56.496-29.106 91.68-86.556 111.25-129.62 24.121-53.094 37.955-113.53 37.955-165.8 0-2.12-1.338-4.01-3.337-4.715z"/>
 </g>
 <g style="fill:#ffb706" transform="matrix(.039606 0 0 .0397 9.0166 9)">
  <path style="fill:#ffb706" d="m324.48 51.943-146.49-51.658c-1.076-0.38-2.25-0.38-3.326 0l-146.49 51.658c-1.999 0.705-3.337 2.595-3.337 4.715 0 52.278 13.834 112.71 37.956 165.8 19.566 43.069 54.751 100.52 111.25 129.62 0.719 0.37 1.504 0.555 2.29 0.555s1.571-0.185 2.29-0.555c56.496-29.106 91.68-86.556 111.25-129.62 24.121-53.094 37.955-113.53 37.955-165.8 0-2.12-1.338-4.01-3.337-4.715z"/>
 </g>
 <path style="opacity:0.1;fill:#ffffff" d="M 15.879044,3.021426 5.2420582,6.8299743 c -0.1449998,0.051999 -0.2419997,0.1912974 -0.2419997,0.3475953 0,0.297596 0.0174,0.6040918 0.0293,0.9081877 0.0311,-0.1141985 0.0991,-0.2150971 0.2128997,-0.2557966 L 15.879244,4.0214124 c 0.078,-0.028 0.164,-0.028 0.242,0 L 26.75823,7.8299607 c 0.114,0.040699 0.182,0.1415981 0.213,0.2557966 0.012,-0.3040959 0.029,-0.6105917 0.029,-0.9081877 0,-0.1562979 -0.097,-0.295596 -0.242,-0.3475953 L 16.121244,3.021426 c -0.078,-0.028 -0.164,-0.028 -0.242,0 z"/>
 <g opacity=".2" transform="matrix(.072611 0 0 .073729 3.1972 5.0002)">
  <path d="m25.232 41.855c-0.11807 0.4269-0.40348 0.78706-0.40348 1.2451 0 52.278 13.832 112.71 37.954 165.8 19.566 43.069 54.756 100.51 111.25 129.62 0.719 0.37 1.5004 0.55631 2.2864 0.55631s1.5674-0.18631 2.2864-0.55631c56.496-29.106 91.686-86.55 111.25-129.62 24.121-53.094 37.954-113.53 37.954-165.8 0-0.458-0.28541-0.81816-0.40348-1.2451-1.9514 49.319-15.291 104.49-37.55 153.49-19.567 43.069-54.757 100.51-111.25 129.62-0.719 0.37-1.5004 0.55631-2.2864 0.55631s-1.5674-0.18631-2.2864-0.55631c-56.49-29.11-91.681-86.55-111.25-129.62-22.257-48.99-35.596-104.17-37.548-153.48z"/>
 </g>
 <path style="opacity:0.2" d="M 10.412846,10.410258 12.710468,9.0837245 23.322732,27.464705 23.832087,31 21.02511,28.791238 Z"/>
 <path style="fill:#ffffff" d="M 10.412846,9.4102575 12.710468,8.0837245 23.322732,26.464705 23.832087,30 21.02511,27.791238 Z"/>
 <path style="opacity:0.2" d="m 8.7475797,3.0051654 c -0.083017,0.010401 -0.1650068,0.038314 -0.2422481,0.082908 L 7.3225927,3.7694764 C 7.0136293,3.9478565 6.9084425,4.3401184 7.0868221,4.6490818 L 9.0869851,8.1117993 7.3459105,9.1170625 C 7.0369471,9.2954427 6.9317603,9.6877045 7.1101405,9.996668 l 0.6826976,1.182739 c 0.1783802,0.308963 0.570642,0.414151 0.8796055,0.235771 L 14.450117,8.0794133 c 0.308963,-0.1783801 0.41415,-0.570642 0.235771,-0.8796054 L 14.003189,6.017069 C 13.824809,5.7081056 13.432547,5.6029183 13.123584,5.7812985 L 11.383805,6.7852663 9.384937,3.3225488 C 9.2511522,3.0908262 8.9966303,2.9739608 8.7475797,3.0051654 Z"/>
 <path style="fill:#3f3f3f" d="m 8.7475797,2.0049715 c -0.083017,0.010401 -0.1650068,0.038314 -0.2422481,0.082908 L 7.3225927,2.7692825 C 7.0136293,2.9476626 6.9084425,3.3399245 7.0868221,3.6488879 l 2.000163,3.4627175 -1.7410746,1.0052632 c -0.3089634,0.1783802 -0.4141502,0.570642 -0.23577,0.8796055 l 0.6826976,1.1827389 c 0.1783802,0.308963 0.570642,0.414151 0.8796055,0.235771 L 14.450117,7.0792194 C 14.75908,6.9008393 14.864267,6.5085774 14.685888,6.199614 L 14.003189,5.0168751 C 13.824809,4.7079117 13.432547,4.6027244 13.123584,4.7811046 L 11.383805,5.7850724 9.384937,2.3223549 C 9.2511522,2.0906323 8.9966303,1.9737669 8.7475797,2.0049715 Z"/>
 <path style="opacity:0.2" d="M 21.619241,10.410258 19.321619,9.0837245 8.7093551,27.464705 8.1999996,31 11.006977,28.791238 Z"/>
 <path style="fill:#ffffff" d="M 21.619241,9.4102575 19.321619,8.0837245 8.7093551,26.464705 8.1999996,30 11.006977,27.791238 Z"/>
 <path style="opacity:0.2" d="m 23.284507,3.0051654 c 0.08302,0.010401 0.165007,0.038314 0.242248,0.082908 l 1.182739,0.6814027 c 0.308964,0.1783801 0.414151,0.570642 0.235771,0.8796054 l -2.000163,3.4627175 1.741075,1.0052632 c 0.308963,0.1783802 0.41415,0.570642 0.23577,0.8796055 l -0.682698,1.1827393 c -0.17838,0.308963 -0.570642,0.414151 -0.879606,0.235771 L 17.58197,8.0794133 C 17.273007,7.9010332 17.16782,7.5087713 17.346199,7.1998079 L 18.028898,6.017069 c 0.17838,-0.3089634 0.570642,-0.4141507 0.879605,-0.2357705 l 1.739779,1.0039678 1.998868,-3.4627175 c 0.133785,-0.2317226 0.388307,-0.348588 0.637357,-0.3173834 z"/>
 <path style="fill:#3f3f3f" d="m 23.284507,2.0049715 c 0.08302,0.010401 0.165007,0.038314 0.242248,0.082908 l 1.182739,0.6814027 c 0.308964,0.1783801 0.414151,0.570642 0.235771,0.8796054 l -2.000163,3.4627175 1.741075,1.0052632 c 0.308963,0.1783802 0.41415,0.570642 0.23577,0.8796055 l -0.682698,1.1827392 c -0.17838,0.308963 -0.570642,0.414151 -0.879606,0.235771 L 17.58197,7.0792194 C 17.273007,6.9008393 17.16782,6.5085774 17.346199,6.199614 l 0.682699,-1.1827389 c 0.17838,-0.3089634 0.570642,-0.4141507 0.879605,-0.2357705 l 1.739779,1.0039678 1.998868,-3.4627175 c 0.133785,-0.2317226 0.388307,-0.348588 0.637357,-0.3173834 z"/>
</svg>
